X: 073
M: 2/4
L: 1/16
K: D
|:\
|:\
e4 d4 | c2e2c2A2 | f4 e4 | ^d2f2d2B2 |
^g4 f4 | e2fg f2e2 | d2c2B2_A2 | B4- B4 |\

